src/assets/image/icons/development.svg

<svg width="62" height="62" viewBox="0 0 62 62" fill="none" xmlns="http://www.w3.org/2000/svg">
<g clip-path="url(#clip0_43_1979)">
<path d="M44.5625 6.78125C38.687 6.78125 33.9062 11.562 33.9062 17.4375C33.9062 23.313 38.687 28.0938 44.5625 28.0938C50.438 28.0938 55.2188 23.313 55.2188 17.4375C55.2188 11.562 50.438 6.78125 44.5625 6.78125ZM44.5625 26.1562C39.7556 26.1562 35.8438 22.2444 35.8438 17.4375C35.8438 12.6306 39.7556 8.71875 44.5625 8.71875C49.3694 8.71875 53.2812 12.6306 53.2812 17.4375C53.2812 22.2444 49.3694 26.1562 44.5625 26.1562ZM57.4924 10.8161L58.7634 8.34675L53.6542 3.23756L51.1849 4.50856C50.4971 4.15691 49.7734 3.85853 49.0255 3.61828L48.175 0.96875H40.9491L40.1004 3.61731C39.3526 3.85756 38.6289 4.15594 37.9411 4.50759L35.4718 3.23659L30.3626 8.34578L31.5503 10.6562H3.875C2.27269 10.6562 0.96875 11.9602 0.96875 13.5625V54.25C0.96875 55.8523 2.27269 57.1562 3.875 57.1562H38.4448C39.5357 59.4435 41.8645 61.0312 44.5625 61.0312C48.3019 61.0312 51.3438 57.9894 51.3438 54.25C51.3438 50.841 48.8124 48.019 45.5312 47.5463V35.8438H43.5938V47.5463C40.3126 48.019 37.7812 50.841 37.7812 54.25C37.7812 54.5794 37.8132 54.901 37.8588 55.2188H3.875C3.34122 55.2188 2.90625 54.7838 2.90625 54.25V24.2188H31.5512L30.3626 26.5283L35.4718 31.6374L37.9411 30.3664C38.6289 30.7181 39.3526 31.0165 40.1004 31.2567L40.95 33.9062H48.1759L49.0246 31.2577C49.7724 31.0174 50.4961 30.7191 51.1839 30.3674L53.6532 31.6384L58.7624 26.5292L57.4914 24.0608C57.8431 23.374 58.1405 22.6503 58.3817 21.9015L61.0312 21.05V13.8241L58.3827 12.9754C58.1424 12.2276 57.8431 11.5039 57.4924 10.8161ZM44.5625 49.4062C47.2333 49.4062 49.4062 51.5792 49.4062 54.25C49.4062 56.9208 47.2333 59.0938 44.5625 59.0938C41.8917 59.0938 39.7188 56.9208 39.7188 54.25C39.7188 51.5792 41.8917 49.4062 44.5625 49.4062ZM2.90625 13.5625C2.90625 13.0287 3.34122 12.5938 3.875 12.5938H30.8828C30.8372 12.7216 30.7849 12.8456 30.7433 12.9754L28.0938 13.825V21.0509L30.7423 21.8996C30.784 22.0294 30.8372 22.1534 30.8818 22.2812H2.90625V13.5625ZM59.0938 19.6375L56.8114 20.3689L56.6699 20.8698C56.3997 21.8269 56.0238 22.7375 55.553 23.5774L55.2982 24.0318L56.3929 26.1582L53.2822 29.2688L51.1558 28.1751L50.7024 28.4289C49.8606 28.8997 48.949 29.2766 47.9938 29.5459L47.493 29.6873L46.7625 31.9688H42.3634L41.632 29.6864L41.1312 29.5449C40.176 29.2747 39.2644 28.8988 38.4226 28.428L37.9692 28.1742L35.8428 29.2679L32.7321 26.1572L33.8268 24.0308L33.572 23.5765C33.1012 22.7366 32.7253 21.825 32.4551 20.8688L32.3136 20.368L30.0312 19.6375V15.2384L32.3136 14.507L32.4551 14.0062C32.7253 13.051 33.1012 12.1394 33.572 11.2976L33.8258 10.8442L32.7321 8.71778L35.8428 5.60713L37.9692 6.70084L38.4226 6.44703C39.2644 5.97622 40.176 5.59937 41.1312 5.33006L41.632 5.18862L42.3625 2.90625H46.7616L47.493 5.18862L47.9938 5.33006C48.949 5.60034 49.8606 5.97622 50.7024 6.44703L51.1558 6.70084L53.2822 5.60713L56.3929 8.71778L55.2992 10.8442L55.553 11.2976C56.0238 12.1394 56.4006 13.051 56.6699 14.0062L56.8114 14.507L59.0938 15.2375V19.6375ZM48.2437 12.9812L51.5859 17.4375L48.2437 21.8938L46.6938 20.7312L49.1641 17.4375L46.6938 14.1438L48.2437 12.9812ZM42.4312 14.1438L39.9609 17.4375L42.4312 20.7312L40.8813 21.8938L37.5391 17.4375L40.8813 12.9812L42.4312 14.1438ZM44.5722 10.5187L46.4893 10.7928L44.5518 24.3553L42.6347 24.0812L44.5722 10.5187ZM16.4688 14.5312H6.78125C5.71272 14.5312 4.84375 15.4002 4.84375 16.4688V18.4062C4.84375 19.4748 5.71272 20.3438 6.78125 20.3438H16.4688C17.5373 20.3438 18.4062 19.4748 18.4062 18.4062V16.4688C18.4062 15.4002 17.5373 14.5312 16.4688 14.5312ZM12.5938 16.4688V18.4062H10.6562V16.4688H12.5938ZM6.78125 16.4688H8.71875V18.4062H6.78125V16.4688ZM14.5312 18.4062V16.4688H16.4688L16.4697 18.4062H14.5312ZM44.5625 57.1562C46.1648 57.1562 47.4688 55.8523 47.4688 54.25C47.4688 52.6477 46.1648 51.3438 44.5625 51.3438C42.9602 51.3438 41.6562 52.6477 41.6562 54.25C41.6562 55.8523 42.9602 57.1562 44.5625 57.1562ZM44.5625 53.2812C45.0963 53.2812 45.5312 53.7162 45.5312 54.25C45.5312 54.7838 45.0963 55.2188 44.5625 55.2188C44.0287 55.2188 43.5938 54.7838 43.5938 54.25C43.5938 53.7162 44.0287 53.2812 44.5625 53.2812ZM51.3438 32.9375V41.0886L55.2188 44.9636V47.647C54.094 48.0481 53.2812 49.1137 53.2812 50.375C53.2812 51.9773 54.5852 53.2812 56.1875 53.2812C57.7898 53.2812 59.0938 51.9773 59.0938 50.375C59.0938 49.1137 58.281 48.0481 57.1562 47.647V44.1614L53.2812 40.2864V32.9375H51.3438ZM56.1875 51.3438C55.6537 51.3438 55.2188 50.9088 55.2188 50.375C55.2188 49.8412 55.6537 49.4062 56.1875 49.4062C56.7213 49.4062 57.1562 49.8412 57.1562 50.375C57.1562 50.9088 56.7213 51.3438 56.1875 51.3438ZM37.7812 41.0886V32.9375H35.8438V40.2864L31.9688 44.1614V47.647C30.844 48.0481 30.0312 49.1137 30.0312 50.375C30.0312 51.9773 31.3352 53.2812 32.9375 53.2812C34.5398 53.2812 35.8438 51.9773 35.8438 50.375C35.8438 49.1137 35.031 48.0481 33.9062 47.647V44.9636L37.7812 41.0886ZM32.9375 51.3438C32.4037 51.3438 31.9688 50.9088 31.9688 50.375C31.9688 49.8412 32.4037 49.4062 32.9375 49.4062C33.4713 49.4062 33.9062 49.8412 33.9062 50.375C33.9062 50.9088 33.4713 51.3438 32.9375 51.3438ZM8.71875 29.0625C8.71875 29.8094 8.42716 30.4846 7.96313 31C8.42716 31.5154 8.71875 32.1906 8.71875 32.9375C8.71875 33.4713 9.15372 33.9062 9.6875 33.9062H10.6562V35.8438H9.6875C8.08519 35.8438 6.78125 34.5398 6.78125 32.9375C6.78125 32.4037 6.34628 31.9688 5.8125 31.9688H4.84375V30.0312H5.8125C6.34628 30.0312 6.78125 29.5963 6.78125 29.0625C6.78125 27.4602 8.08519 26.1562 9.6875 26.1562H10.6562V28.0938H9.6875C9.15372 28.0938 8.71875 28.5287 8.71875 29.0625ZM24.2188 28.0938H12.5938V26.1562H24.2188V28.0938ZM12.5938 30.0312H24.2188V31.9688H12.5938V30.0312ZM22.2812 35.8438V33.9062H24.2188V35.8438H22.2812ZM12.5938 33.9062H20.3438V35.8438H12.5938V33.9062ZM23.25 51.3438H22.2812V49.4062H23.25C23.7838 49.4062 24.2188 48.9713 24.2188 48.4375C24.2188 47.6906 24.5103 47.0154 24.9744 46.5C24.5094 45.9846 24.2188 45.3094 24.2188 44.5625C24.2188 44.0287 23.7838 43.5938 23.25 43.5938H22.2812V41.6562H23.25C24.8523 41.6562 26.1562 42.9602 26.1562 44.5625C26.1562 45.0963 26.5912 45.5312 27.125 45.5312H28.0938V47.4688H27.125C26.5912 47.4688 26.1562 47.9037 26.1562 48.4375C26.1562 50.0398 24.8523 51.3438 23.25 51.3438ZM8.71875 49.4062H20.3438V51.3438H8.71875V49.4062ZM20.3438 47.4688H12.5938V45.5312H20.3438V47.4688ZM10.6562 45.5312V47.4688H8.71875V45.5312H10.6562ZM20.3438 43.5938H8.71875V41.6562H20.3438V43.5938ZM24.2188 39.7188H4.84375V37.7812H24.2188V39.7188Z" fill="url(#paint0_linear_43_1979)"/>
</g>
<defs>
<linearGradient id="paint0_linear_43_1979" x1="31" y1="61.0312" x2="31" y2="0.96875" gradientUnits="userSpaceOnUse">
<stop stop-color="#6582FD"/>
<stop offset="1" stop-color="#E13E91"/>
</linearGradient>
<clipPath id="clip0_43_1979">
<rect width="62" height="62" fill="white"/>
</clipPath>
</defs>
</svg>

<svg xmlns="http://www.w3.org/2000/svg" width="62" height="62" fill="none"><g clip-path="url(#a)"><path fill="url(#b)" d="M44.563 6.781c-5.876 0-10.657 4.781-10.657 10.657 0 5.875 4.781 10.656 10.657 10.656 5.875 0 10.656-4.781 10.656-10.657 0-5.875-4.781-10.656-10.657-10.656m0 19.375c-4.807 0-8.72-3.912-8.72-8.718 0-4.807 3.913-8.72 8.72-8.72 4.806 0 8.718 3.913 8.718 8.72 0 4.806-3.912 8.718-8.718 8.718m12.93-15.34 1.27-2.47-5.109-5.108-2.47 1.27a14.5 14.5 0 0 0-2.158-.89l-.851-2.65h-7.226l-.849 2.65c-.747.24-1.471.538-2.159.89l-2.47-1.271-5.108 5.109 1.187 2.31H3.875a2.91 2.91 0 0 0-2.906 2.906V54.25a2.91 2.91 0 0 0 2.906 2.906h34.57c1.09 2.288 3.42 3.875 6.118 3.875a6.79 6.79 0 0 0 6.78-6.781c0-3.409-2.53-6.231-5.812-6.704V35.844h-1.937v11.702c-3.281.473-5.813 3.295-5.813 6.704 0 .33.032.651.078.969H3.875a.97.97 0 0 1-.969-.969V24.219h28.645l-1.188 2.31 5.109 5.108 2.47-1.27c.687.351 1.41.65 2.158.89l.85 2.65h7.226l.849-2.65c.747-.24 1.471-.538 2.159-.89l2.47 1.271 5.108-5.109-1.27-2.468c.351-.687.649-1.41.89-2.16l2.65-.851v-7.226l-2.65-.849a14.6 14.6 0 0 0-.89-2.159m-12.93 38.59a4.85 4.85 0 0 1 4.843 4.844 4.85 4.85 0 0 1-4.843 4.844 4.85 4.85 0 0 1-4.844-4.844 4.85 4.85 0 0 1 4.843-4.844M2.906 13.563a.97.97 0 0 1 .969-.97h27.008c-.046.129-.098.253-.14.382l-2.65.85v7.226l2.65.849c.041.13.094.253.139.381H2.906zm56.188 6.074-2.283.732-.141.5c-.27.958-.646 1.869-1.117 2.708l-.255.455 1.095 2.126-3.11 3.11-2.127-1.093-.454.254a12.5 12.5 0 0 1-2.708 1.117l-.501.141-.73 2.282h-4.4l-.731-2.283-.5-.141a12.6 12.6 0 0 1-2.71-1.117l-.453-.254-2.126 1.094-3.11-3.11 1.094-2.127-.255-.454c-.47-.84-.847-1.752-1.117-2.708l-.141-.501-2.283-.73v-4.4l2.283-.731.141-.5c.27-.956.646-1.868 1.117-2.71l.254-.453-1.094-2.126 3.11-3.11L37.97 6.7l.454-.254A12.5 12.5 0 0 1 41.13 5.33l.501-.141.73-2.283h4.4l.731 2.283.5.141c.956.27 1.868.646 2.71 1.117l.453.254 2.126-1.094 3.11 3.11-1.093 2.127.254.454c.47.841.848 1.753 1.117 2.708l.141.501 2.283.73zm-10.85-6.656 3.342 4.457-3.342 4.456-1.55-1.163 2.47-3.294-2.47-3.293zm-5.813 1.163-2.47 3.294 2.47 3.293-1.55 1.163-3.342-4.456 3.342-4.457zm2.141-3.625 1.917.274-1.937 13.562-1.917-.274zM16.47 14.53H6.78a1.94 1.94 0 0 0-1.937 1.938v1.937a1.94 1.94 0 0 0 1.937 1.938h9.688a1.94 1.94 0 0 0 1.937-1.938V16.47a1.94 1.94 0 0 0-1.937-1.938m-3.875 1.938v1.937h-1.938V16.47zm-5.813 0h1.94v1.937H6.78zm7.75 1.937V16.47h1.938v1.937zm30.032 38.75a2.91 2.91 0 0 0 2.906-2.906 2.91 2.91 0 0 0-2.907-2.906 2.91 2.91 0 0 0-2.906 2.906 2.91 2.91 0 0 0 2.907 2.906m0-3.875a.97.97 0 0 1 .968.969.97.97 0 0 1-.968.969.97.97 0 0 1-.97-.969.97.97 0 0 1 .97-.969m6.78-20.343v8.15l3.876 3.876v2.683a2.9 2.9 0 0 0-1.938 2.728 2.91 2.91 0 0 0 2.907 2.906 2.91 2.91 0 0 0 2.906-2.906 2.9 2.9 0 0 0-1.938-2.728v-3.486l-3.875-3.875v-7.349zm4.844 18.406a.97.97 0 0 1-.968-.969.97.97 0 0 1 .968-.969.97.97 0 0 1 .97.969.97.97 0 0 1-.97.969M37.782 41.089v-8.151h-1.937v7.348l-3.875 3.875v3.486a2.9 2.9 0 0 0-1.938 2.728 2.91 2.91 0 0 0 2.907 2.906 2.91 2.91 0 0 0 2.906-2.906 2.9 2.9 0 0 0-1.938-2.728v-2.683zm-4.843 10.255a.97.97 0 0 1-.97-.969.97.97 0 0 1 .97-.969.97.97 0 0 1 .968.969.97.97 0 0 1-.968.969M8.718 29.063c0 .746-.29 1.422-.755 1.937.464.515.756 1.19.756 1.938a.97.97 0 0 0 .969.968h.968v1.938h-.969a2.91 2.91 0 0 1-2.906-2.907.97.97 0 0 0-.968-.968h-.97V30.03h.97a.97.97 0 0 0 .968-.968 2.91 2.91 0 0 1 2.907-2.907h.968v1.938h-.969a.97.97 0 0 0-.968.968m15.5-.97H12.595v-1.937H24.22zm-11.624 1.938H24.22v1.938H12.594zm9.687 5.813v-1.938h1.938v1.938zm-9.687-1.938h7.75v1.938h-7.75zm10.655 17.44h-.969v-1.938h.969a.97.97 0 0 0 .969-.968c0-.747.291-1.423.755-1.938a2.88 2.88 0 0 1-.755-1.937.97.97 0 0 0-.969-.97h-.969v-1.937h.969a2.91 2.91 0 0 1 2.906 2.907.97.97 0 0 0 .969.968h.969v1.938h-.969a.97.97 0 0 0-.969.968 2.91 2.91 0 0 1-2.906 2.907M8.719 49.406h11.625v1.938H8.719zm11.625-1.937h-7.75V45.53h7.75zm-9.688-1.938v1.938H8.72V45.53zm9.688-1.937H8.719v-1.938h11.625zm3.875-3.875H4.844V37.78h19.375z"/></g><defs><linearGradient id="b" x1="31" x2="31" y1="61.031" y2=".969" gradientUnits="userSpaceOnUse"><stop stop-color="#6582FD"/><stop offset="1" stop-color="#E13E91"/></linearGradient><clipPath id="a"><path fill="#fff" d="M0 0h62v62H0z"/></clipPath></defs></svg>
